X: 31717
T: Pasucais Of Coana
R: jig
M: 6/8
K: Gmajor
Bdg|:edc BAG|ADD BAG|ADD BAG|ADD Bdg|
edc BAG|ADD ADD|B3 B2A|1 G3 Bdg:|2 G3 G2d||
|:e2d f2d|g2d bag|gef gbg|a2d bag|
e2d fdg|g2d bag|gef gaf|1 g3 g2d:|2 g3 B2c||
|:ded cBA|c2E E3|FDF FAF|G3 B2c|
ded cBA|c2E E3|FDF FAF|1 G3 B2c|G3 cBc||
|:cBc cBc|dBG GBd|cAF FAc|BAG cBc|
cBc cBc|dBG GBd|cAF FGA|1 G3 cBc|2 G3 GAB||
|:cEE EFG|A^GA ABc|cBc cBA|BGG GAB|
cEE EFG|A^GA ABc|cBc cBA|BGG GAB|
EDE FDF|A^GA ABc|cBc cBA|BGG GAB|
EDE FDF|A^GA ABc|cBc cBA|1 G3 GAB:|2 G3 Bdg||

